!!!OTL: Der Schuster und das M&auml;dchen (180a), S. 394
!!!id: T0359
**kern
*clefG2
*k[f#]
*G:
{8d
=1
8g
8g
8g
4a
8cc
=2
4.b
4a}
=3
{8cc
=4
4b
8a
4e
8f#
=5
4.g}
4r
=6
{16b
16d
=7
4d
16b
16b
4a
8cc
=8
4.g
4d}
=9
{8d
=10
8a
8a
8a
4a
8cc
=11
4.b
4a}
=12
{8cc
=13
4b
8a
4g
8f#
=14
4.g}
4r
=15
{16b
16d
=16
4d
16b
16b
4a
8cc
=17
4.g
4d}
=18
{8d
=19
8a
8a
8a
4a
8cc
=20
4.b
4a}
=21
{8cc
=22
4b
8a
4g
8f#
=23
4.g}
4r
==
*-
!!!minrhy: 16
!!!meters: 6/8 ]  ZZ[8
!!!cut: Der Schuster und das M&auml;dchen (180a), S. 394
!!!reg: Luxemburg
!!!trd: Singendes Volk, Esch-Alzette, 1937 posth.
!!!rhy1: X_  X_X_X_X__X_  X__.X__   (x2)
!!!rhy2: X_  X__X_X__X_  X__.0_
!!!key: T0359  16  G 6/8 ]  ZZ[8
!!!mod: HEPTATONIK IONISCH]  AMBITUS[7b
!!!kad: 21-521-521
!!!akz: 1232_3-61_-521-5_2232_311_-521-5_2232_311_
!!!fot: 'a__b__c__aw_d__c__aw_d__
!!!for: 'a__b__c__a__b__c__a__b__
!!!fok: '^a_Vd_\__^a_\__\__^a_\__
!! PHRAS[AUFTAKTIG]
!!!fkt: Tage-, W&auml;chter-, Fenstergang-, St&auml;ndchenlieder, Liebeslied
!!!bem: StraPen, fff Witry, 10.1.1933
!! THILL; Mathias
!! PR[19] 2K[0] 2G[31] 3K[6] 3G[0] 4A[14] 4Ü[0] 5A[0] 6K[0] 6G[0]
!! 7K[0] 7G[0] 8A[0] MEHR[0] SI[50] ABS[36] SR[31] SP[19]
!! ST[10] 2k[6] 2g[6] 3k[0] 3g[8] 4d[3] 4ü[0] 5d[3] 6k[0] 6g[6]
!! 7k[0] 7g[0] 8d[0] mehr[0] si[31] dm[+19] sr[11] sp[19]
!! 1F[5] 2F[49] 3F[36] 4F[0] LF[0] 2P[0] 3P[10] 4P[0] TRI[0] DF[4] AB[39]
!! TF[0] U3K[0] U3[0] U4[0] U4Ü[0] U5[22] U6K[0] U6[0] U7K[0] U7[0]
!! N1[32] N2K[0] N2[24] N3K[0] N3[16] N4[5] N4Ü[0] N5[0] N6K[0] N6[0]
!!!n7k: 0] N7[0] O1[0] O2K[0] O2[0] O3K[0] O3[0] HÖ[0
!!!RNB: symbol: &auml;      = a umlaut  (UTF-8: Å„)
